svg/food/birthday_2_fill.svg

<?xml version="1.0" encoding="UTF-8"?>
<svg width="24px" height="24px" viewBox="0 0 24 24" version="1.1" xmlns="http://www.w3.org/2000/svg" xmlns:xlink="http://www.w3.org/1999/xlink">
    <title>birthday_2_fill</title>
    <g id="Icon" stroke="none" stroke-width="1" fill="none" fill-rule="evenodd">
        <g id="Food" transform="translate(-480.000000, -145.000000)" fill-rule="nonzero">
            <g id="birthday_2_fill" transform="translate(480.000000, 145.000000)">
                <path d="M24,0 L24,24 L0,24 L0,0 L24,0 Z M12.5935,23.2578 L12.5819,23.2595 L12.5109,23.295 L12.4919,23.2987 L12.4767,23.295 L12.4057,23.2595 C12.3958,23.2564 12.387,23.259 12.3821,23.2649 L12.378,23.2758 L12.3609,23.7031 L12.3659,23.7235 L12.3769,23.7357 L12.4805,23.8097 L12.4953,23.8136 L12.5071,23.8097 L12.6107,23.7357 L12.6233,23.7197 L12.6267,23.7031 L12.6096,23.2758 C12.6076,23.2657 12.601,23.2593 12.5935,23.2578 Z M12.8584,23.1453 L12.8445,23.1473 L12.6598,23.2397 L12.6499,23.2499 L12.6472,23.2611 L12.6651,23.6906 L12.6699,23.7034 L12.6784,23.7105 L12.8793,23.8032 C12.8914,23.8069 12.9022,23.803 12.9078,23.7952 L12.9118,23.7812 L12.8777,23.1665 C12.8753,23.1546 12.8674,23.147 12.8584,23.1453 Z M12.143,23.1473 C12.1332,23.1424 12.1222,23.1453 12.1156,23.1526 L12.1099,23.1665 L12.0758,23.7812 C12.0751,23.7927 12.0828,23.8019 12.0926,23.8046 L12.1083,23.8032 L12.3092,23.7105 L12.3186,23.7024 L12.3225,23.6906 L12.3404,23.2611 L12.3372,23.2485 L12.3278,23.2397 L12.143,23.1473 Z" id="MingCute"></path>
                <path d="M12.6,2.2 C12.2444,1.93333 11.7556,1.93333 11.4,2.2 C10.9824,2.51385 10.5989,2.88349 10.2526,3.27314 C9.72953,3.86158 9,4.85497 9,5.9999975 C9,7.65685 10.3431,8.9999975 12,8.9999975 L6,8.9999975 C4.34315,8.9999975 3,10.3431 3,11.9999975 L3,13.9999975 C3,15.2361 4.41114,15.9416 5.4,15.2 L6.06667,14.7 C6.42222,14.4333 6.91111,14.4333 7.26667,14.7 L7.53333,14.9 C8.6,15.7 10.0667,15.7 11.1333,14.9 L11.4,14.7 C11.7556,14.4333 12.2444,14.4333 12.6,14.7 L12.8667,14.9 C13.9333,15.7 15.4,15.7 16.4667,14.9 L16.7333,14.7 C17.0889,14.4333 17.5778,14.4333 17.9333,14.7 L18.6,15.2 C19.5889,15.9416 21,15.2361 21,13.9999975 L21,11.9999975 C21,10.3431 19.6569,8.9999975 18,8.9999975 L12,8.9999975 C13.6569,8.9999975 15,7.65685 15,5.9999975 C15,4.85497 14.2705,3.86158 13.7474,3.27314 C13.4011,2.88349 13.0176,2.51385 12.6,2.2 Z M4,17.4145 L4,20 C4,21.1046 4.89543,22 6,22 L18,22 C19.1046,22 20,21.1046 20,20 L20,17.4145 C19.5563,17.5729 19.0369,17.5277 18.6,17.2 L17.9333,16.7 C17.5778,16.4333 17.0889,16.4333 16.7333,16.7 L16.4667,16.9 C15.4,17.7 13.9333,17.7 12.8667,16.9 L12.6,16.7 C12.2444,16.4333 11.7556,16.4333 11.4,16.7 L11.1333,16.9 C10.0667,17.7 8.6,17.7 7.53333,16.9 L7.26667,16.7 C6.91111,16.4333 6.42222,16.4333 6.06667,16.7 L5.4,17.2 C4.96306,17.5277 4.44367,17.5729 4,17.4145 Z" id="形状" fill="#09244B"></path>
            </g>
        </g>
    </g>
</svg>

<svg xmlns="http://www.w3.org/2000/svg" width="24" height="24"><g fill="none" fill-rule="nonzero"><path d="M24 0v24H0V0h24ZM12.594 23.258l-.012.002-.071.035-.02.004-.014-.004-.071-.036c-.01-.003-.019 0-.024.006l-.004.01-.017.428.005.02.01.013.104.074.015.004.012-.004.104-.074.012-.016.004-.017-.017-.427c-.002-.01-.009-.017-.016-.018Zm.264-.113-.014.002-.184.093-.01.01-.003.011.018.43.005.012.008.008.201.092c.012.004.023 0 .029-.008l.004-.014-.034-.614c-.003-.012-.01-.02-.02-.022Zm-.715.002a.023.023 0 0 0-.027.006l-.006.014-.034.614c0 .012.007.02.017.024l.015-.002.201-.093.01-.008.003-.011.018-.43-.003-.012-.01-.01-.184-.092Z"/><path fill="#09244B" d="M12.6 2.2a1 1 0 0 0-1.2 0 7.925 7.925 0 0 0-1.147 1.073C9.73 3.862 9 4.855 9 6a3 3 0 0 0 3 3H6a3 3 0 0 0-3 3v2c0 1.236 1.411 1.942 2.4 1.2l.667-.5a1 1 0 0 1 1.2 0l.266.2a3 3 0 0 0 3.6 0l.267-.2a1 1 0 0 1 1.2 0l.267.2a3 3 0 0 0 3.6 0l.266-.2a1 1 0 0 1 1.2 0l.667.5c.989.742 2.4.036 2.4-1.2v-2a3 3 0 0 0-3-3h-6a3 3 0 0 0 3-3c0-1.145-.73-2.138-1.253-2.727-.346-.39-.73-.76-1.147-1.073ZM4 17.415V20a2 2 0 0 0 2 2h12a2 2 0 0 0 2-2v-2.585a1.477 1.477 0 0 1-1.4-.215l-.667-.5a1 1 0 0 0-1.2 0l-.266.2a3 3 0 0 1-3.6 0l-.267-.2a1 1 0 0 0-1.2 0l-.267.2a3 3 0 0 1-3.6 0l-.266-.2a1 1 0 0 0-1.2 0l-.667.5a1.477 1.477 0 0 1-1.4.215Z"/></g></svg>
